X:1
T:Ave sanctissima Maria
T:Giovanni Girolamo Kapsperger
T:Source : Libro primo di mottetti passeggiati a una voce---Roma---1612 Racolta del Sig.Francesco de Nobili Editor : André Vierendeels (20/10/15).
T:Notes : Original clefs  C1, F4 Figures in BC are notated in original Ms Note values have been halved in 3-beat measures 
T:Ave sanctissima Maria
C:Giovanni Girolamo Kapsperger
%%score 1 2
L:1/8
Q:1/4=74
M:4/4
K:C
V:1 treble nm="Soprano" snm="S"
V:2 bass nm="BC" snm="BC"
V:1
 d8 | G6 AG | A^FGA B3 B | B6 A2 | c6 B2 | c3 A B/c/d/c/ B/A/G/F/ | E3 F/E/ F/E/F/E/ F/E/F/G/ | %7
w: A-|ve san- *|* * * * ctis- si-|ma Ma-|ri- *|a ma- * * * * * * * *|ter _ _ _ _ _ _ _ _ _ _|
 E4- E^F/G/ A/B/c/d/ | e2 d/c/4d/4c B4 | A4 c/B/c/d/ c2- | c2 ^F2 G2 A2 | B6 c2 | ADEF GABA | %13
w: De- * * * * * * *||i, por- * * * *|* ta pa- ra-|di- si,|Do- * * * * * * *|
 B/^F/G/A/ B/^c/d/c/ c/4c/4B/c/d/ c/4c/4c/4c/4B/c/ | d3 G/G/ A4 | D6 Bc | dc BA G^F ED | E4 E4 | %18
w: |* mi- na mun-|di, pu- *|* * ra _ sin- * gu- *|la- ris,|
 A2 B/c/d/c/ B/c/d/c/ B/A/G/^F/ | E^F/G/ A/F/G/A/ D/E/F/G/ A/B/^c/B/ | %20
w: tu es _ _ _ _ _ _ _ _ _ _ _|_ _ _ _ _ _ _ _ _ _ _ _ _ _ _|
 ^c/A/B/c/ d/c/d/A/ B/c/d/c/ c/4c/4B/c/d/ | G/A/B/B/4B/4 G/A/B/E/ ^F/G/F/F/4F/4 E/F/G/D/ | %22
w: ||
 E/^F/E/D/ E/E/E/D/ E4 |[M:3/4] D4 A2 | B4 c2 | d4 e2 | A4 A2 |[M:4/4] f6 e2- | e2 d2 d3 e | %29
w: * * * * * * * * Vir-|go, tu|con- ci-|pi- sti|Je- sum|si- ne|_ pec- ca- *|
[M:3/4] c>B c2 e2 | d/c/d/e/ d2 c2 | B4 A2 | G/F/G/A/ G2 F2 |[M:4/4] E4 E4 | E2 ^FE FG AB | %35
w: to, _ _ tu|pe- * * * * pe-|ri- sti|cre- * * * * a-|to- rem|et Sal- * va- * to- *|
 cBdc B4 | A8 | A4 B/c/d/A/ G/A/B/E/ | ^F/G/A/D/ E/F/G/D/ E3 E | D2 d4 dc | B2 G4 GF | E3 c c2 d2 | %42
w: rem _ _ _ mun-|di,|in quo _ _ _ non _ _ _|_ _ _ _ _ _ _ _ du- bi-|to, li- be- ra|me _ _ _|_ ab o- mni|
 e/d/e/d/ d/d/c d2 d2 | e/d/c/B/ e/d/c/B/ c3 d | B>A B2 E2 ^FG | %45
w: ma- * * * * * * lo et|o- * * * * * * * * *|ra _ _ pro pec- *|
 A/B/A/G/ ^F/G/F/E/ D/A/B/c/ d/e/d/c/ | B/c/B/A/ G/^F/E/F/ G/D/E/F/ G/A/B/c/ | d2 G2 ABcG | %48
w: ca- * * * * * * * * * * * * * * *||* me- * * * *|
 ABcB A4 | !fermata!G8 |] %50
w: |is.|
V:2
 G,8 | E,4 D,4- | D,4 G,,4 | G,4 F,4 | E,4 D,4 | C,8 | C,4 D,4 | E,4 D,4 | ^C,2 D,2 E,4 | A,,8 | %10
 D,4 E,2 ^F,2 | G,8 | D,8 | B,,8 | B,,2 C,2 A,,4 | G,,8 | A,,2 C,2 D,4 | A,,4 A,2 G,2 | ^F,4 G,4 | %19
 A,4 ^F,4 | ^F,8 | G,8- | G,4 A,4 |[M:3/4] D,4 D,2 | G,4 C,2 | G,,4 C,2 | F,4 F,2 | %27
[M:4/4] F,4 G,4- | G,4 G,4 |[M:3/4] C,4 C,2 | G,4 A,2 | G,4 F,2 | E,4 D,2 |[M:4/4] C,8 | %34
 C,2 B,,4 A,,2 | D,4 E,4 | A,,4 A,4 | ^F,4 G,2 E,2 | D,2 A,,2 A,,4 | D,8 | G,8 | C,6 B,,2 | %42
 C,4 G,4 | E,4 A,,4 | D,4 C,2 B,,2 | A,,4 A,,4 | B,,8 | B,,4 C,4- | C,4 D,4 | !fermata!G,,8 |] %50

